res/skins/Deere/icon/ic_radio_button_on_18px.svg

<svg xmlns:rdf="http://www.w3.org/1999/02/22-rdf-syntax-ns#" xmlns="http://www.w3.org/2000/svg" version="1.1" xmlns:cc="http://creativecommons.org/ns#" xmlns:dc="http://purl.org/dc/elements/1.1/" viewBox="0 0 18 18">
 <path fill="#848484" d="m9 5.5c-1.932 0-3.5 1.568-3.5 3.5s1.568 3.5 3.5 3.5 3.5-1.568 3.5-3.5-1.568-3.5-3.5-3.5zm0-3.5c-3.8675 0-7 3.1325-7 7s3.1325 7 7 7 7-3.1325 7-7-3.132-7-7-7zm0 12.6c-3.094 0-5.6-2.506-5.6-5.6s2.506-5.6 5.6-5.6 5.6 2.506 5.6 5.6-2.506 5.6-5.6 5.6z"/>
 <path fill="none" d="m0-30h48v48h-48z"/>
</svg>

<?xml version="1.0" encoding="UTF-8" standalone="no"?>
<svg
   xmlns:dc="http://purl.org/dc/elements/1.1/"
   xmlns:cc="http://creativecommons.org/ns#"
   xmlns:rdf="http://www.w3.org/1999/02/22-rdf-syntax-ns#"
   xmlns:svg="http://www.w3.org/2000/svg"
   xmlns="http://www.w3.org/2000/svg"
   xmlns:sodipodi="http://sodipodi.sourceforge.net/DTD/sodipodi-0.dtd"
   xmlns:inkscape="http://www.inkscape.org/namespaces/inkscape"
   version="1.1"
   viewBox="0 0 18 18"
   id="svg2"
   inkscape:version="0.91 r13725"
   sodipodi:docname="ic_radio_button_on_18px.svg">
  <metadata
     id="metadata12">
    <rdf:RDF>
      <cc:Work
         rdf:about="">
        <dc:format>image/svg+xml</dc:format>
        <dc:type
           rdf:resource="http://purl.org/dc/dcmitype/StillImage" />
      </cc:Work>
    </rdf:RDF>
  </metadata>
  <defs
     id="defs10" />
  <sodipodi:namedview
     pagecolor="#ffffff"
     bordercolor="#666666"
     borderopacity="1"
     objecttolerance="10"
     gridtolerance="10"
     guidetolerance="10"
     inkscape:pageopacity="0"
     inkscape:pageshadow="2"
     inkscape:window-width="1366"
     inkscape:window-height="702"
     id="namedview8"
     showgrid="false"
     inkscape:zoom="13.111111"
     inkscape:cx="9.4576271"
     inkscape:cy="9.3050847"
     inkscape:window-x="0"
     inkscape:window-y="27"
     inkscape:window-maximized="1"
     inkscape:current-layer="svg2" />
  <path
     d="M 9,5.5 C 7.068,5.5 5.5,7.068 5.5,9 c 0,1.932 1.568,3.5 3.5,3.5 1.932,0 3.5,-1.568 3.5,-3.5 C 12.5,7.068 10.932,5.5 9,5.5 Z M 9,2 C 5.1325,2 2,5.1325 2,9 c 0,3.8675 3.1325,7 7,7 3.8675,0 7,-3.1325 7,-7 C 16,5.1325 12.868,2 9,2 Z M 9,14.6 C 5.906,14.6 3.4,12.094 3.4,9 3.4,5.906 5.906,3.4 9,3.4 c 3.094,0 5.6,2.506 5.6,5.6 0,3.094 -2.506,5.6 -5.6,5.6 z"
     id="path4"
     inkscape:connector-curvature="0"
     style="fill:#d2d2d2;fill-opacity:1" />
  <path
     fill="none"
     d="m0-30h48v48h-48z"
     id="path6" />
</svg>
